Sources/FrostedUI/Resources/Icons.xcassets/stats12.imageset/stats-12.svg

<svg width="12" height="12" viewBox="0 0 12 12" fill="none" xmlns="http://www.w3.org/2000/svg" data-fui-icon="true">
  <path
    d="M1.25 1C1.66421 1 2 1.33579 2 1.75V8.9375C2 9.24816 2.25184 9.5 2.5625 9.5H11.25C11.6642 9.5 12 9.83579 12 10.25C12 10.6642 11.6642 11 11.25 11H2.5625C1.42341 11 0.5 10.0766 0.5 8.9375V1.75C0.5 1.33579 0.835786 1 1.25 1ZM10.25 2C10.6642 2 11 2.33579 11 2.75V4.75C11 5.05335 10.8174 5.32727 10.5371 5.44336C10.2569 5.5594 9.93421 5.49475 9.71973 5.28027L9.25 4.81055L7.59277 6.46777C7.29988 6.76067 6.82512 6.76067 6.53223 6.46777L5.375 5.31055L3.96777 6.71777C3.67488 7.01067 3.20012 7.01067 2.90723 6.71777C2.61433 6.42488 2.61433 5.95012 2.90723 5.65723L4.84473 3.71973L4.90137 3.66797C5.19595 3.42766 5.63067 3.44512 5.90527 3.71973L7.0625 4.87695L8.18945 3.75L7.71973 3.28027C7.50525 3.06579 7.4406 2.74313 7.55664 2.46289C7.67273 2.18263 7.94665 2 8.25 2H10.25Z"
    fill="currentColor"
  />
</svg>

<svg xmlns="http://www.w3.org/2000/svg" width="12" height="12" fill="none" data-fui-icon="true" viewBox="0 0 12 12"><path fill="currentColor" d="M1.25 1a.75.75 0 0 1 .75.75v7.188c0 .31.252.562.563.562h8.687a.75.75 0 0 1 0 1.5H2.563A2.06 2.06 0 0 1 .5 8.938V1.75A.75.75 0 0 1 1.25 1m9 1a.75.75 0 0 1 .75.75v2a.75.75 0 0 1-1.28.53l-.47-.47-1.657 1.658a.75.75 0 0 1-1.06 0L5.374 5.31 3.968 6.718a.75.75 0 1 1-1.06-1.06L4.844 3.72l.056-.052a.75.75 0 0 1 1.004.052l1.157 1.157L8.19 3.75l-.47-.47A.75.75 0 0 1 8.25 2z"/></svg>
